usr/share/icons/biglinux-icons-material/16/actions/text-speak.svg

<svg xmlns="http://www.w3.org/2000/svg" viewBox="0 0 16 16"><path d="M5 2v5h1V3h7v5H7v1h4v3l3-3V2H5zm0 6-2 2H2v2h1l2 2h1V8H5z" style="fill:currentColor;fill-opacity:1;stroke:none;color:#dedede"/></svg>

<svg xmlns="http://www.w3.org/2000/svg" viewBox="0 0 16 16">
  <defs id="defs3051">
    <style type="text/css" id="current-color-scheme">
      .ColorScheme-Text {
        color:#363636;
      }
      </style>
  </defs>
 <path 
     style="fill:currentColor;fill-opacity:1;stroke:none" 
     d="M 5 2 L 5 7 L 6 7 L 6 3 L 13 3 L 13 8 L 7 8 L 7 9 L 11 9 L 11 12 L 14 9 L 14 2 L 5 2 z M 5 8 L 3 10 L 2 10 L 2 12 L 3 12 L 5 14 L 6 14 L 6 8 L 5 8 z "
     class="ColorScheme-Text"/>
</svg>
